packages/ui/assets/svg/partner_celo.svg

<svg class="partner-size" width="100" height="30" viewBox="0 0 100 30" fill="none" xmlns="http://www.w3.org/2000/svg">
<g id="partner_celo" clip-path="url(#clip0_205_58)">
<path class="fill" d="M76.2812 26.0933L78.9688 25.2536V3.11005L76.2812 3.94976V26.0933ZM45.2813 12.6578C46.9687 12.6578 48.5312 13.4043 49.5312 14.6483L50.625 12.1292C49.1875 10.7608 47.2813 10.1077 45.2813 10.1077C40.6562 10.1077 37.4687 13.7464 37.5 17.7583C37.5312 22.1124 40.9688 25.6579 45.2813 25.6579C47.4688 25.6579 49.125 25.0048 50.375 24.1028V21.0239C49.0625 22.3301 47.1562 23.1076 45.5 23.1076C43 23.1076 40.1875 21.0861 40.1875 17.7583C40.1875 14.6795 42.625 12.6578 45.2813 12.6578ZM63.1563 10.1077C58.5313 10.1077 55.8437 13.7464 55.8437 17.7583C55.8437 22.1124 59.3124 25.6579 63.625 25.6579C65.8125 25.6579 67.4688 25.0048 68.7188 24.1028V21.0239C67.4062 22.3301 65.5 23.1076 63.8437 23.1076C61.625 23.1076 59.1875 21.7392 58.6875 18.8469H70.4688V17.8206C70.4688 13.5287 67.6249 10.1077 63.1563 10.1077ZM92.1876 10.1077C87.875 10.1077 84.375 13.5909 84.375 17.8828C84.375 22.1747 87.875 25.6579 92.1876 25.6579C96.5 25.6579 100 22.1747 100 17.8828C100 13.5909 96.5 10.1077 92.1876 10.1077ZM63.1875 12.6578C65.2813 12.6578 67.5 13.9641 67.6875 16.4833H58.6875C58.875 13.9641 61.0937 12.6578 63.1875 12.6578ZM92.1876 23.1076C89.2813 23.1076 86.9375 20.7752 86.9375 17.8828C86.9375 14.9904 89.2813 12.6578 92.1876 12.6578C95.0937 12.6578 97.4375 14.9904 97.4375 17.8828C97.4375 20.7752 95.0937 23.1076 92.1876 23.1076Z" fill="#1A1A1A"></path>
<path id="path26953" d="M17.9688 20.2154C22.715 20.2154 26.5625 16.3863 26.5625 11.6627C26.5625 6.93914 22.715 3.11005 17.9688 3.11005C13.2226 3.11005 9.37503 6.93914 9.37503 11.6627C9.37503 16.3863 13.2226 20.2154 17.9688 20.2154ZM17.9688 23.3253C11.4969 23.3253 6.25003 18.1036 6.25003 11.6627C6.25003 5.22177 11.4969 0 17.9688 0C24.4407 0 29.6875 5.22177 29.6875 11.6627C29.6875 18.1036 24.4407 23.3253 17.9688 23.3253Z" fill="#35D07F"></path>
<path id="path26955" d="M11.7188 26.4354C16.465 26.4354 20.3125 22.6063 20.3125 17.8828C20.3125 13.1593 16.465 9.33014 11.7188 9.33014C6.9725 9.33014 3.125 13.1593 3.125 17.8828C3.125 22.6063 6.9725 26.4354 11.7188 26.4354ZM11.7188 29.5454C5.24688 29.5454 0 24.3237 0 17.8828C0 11.4419 5.24688 6.22009 11.7188 6.22009C18.1906 6.22009 23.4375 11.4419 23.4375 17.8828C23.4375 24.3237 18.1906 29.5454 11.7188 29.5454Z" fill="#FBCC5C"></path>
<path id="path26957" d="M18.3532 23.3191C19.1653 22.3399 19.7472 21.1924 20.0569 19.9608C21.2944 19.6529 22.4472 19.0735 23.4313 18.2655C23.3863 19.6918 23.0778 21.0978 22.5206 22.4127C21.1994 22.9672 19.7866 23.2743 18.3532 23.3191ZM9.63094 9.58443C8.39343 9.89233 7.24062 10.4717 6.25656 11.2797C6.30156 9.85344 6.61 8.44739 7.16718 7.13246C8.48843 6.57794 9.90125 6.27099 11.3344 6.2262C10.5225 7.20555 9.94031 8.35284 9.63094 9.58443Z" fill="#ECFF8F"></path>
</g>
<defs>
<clipPath id="clip0_205_58">
<rect width="100" height="29.5455" fill="white"></rect>
</clipPath>
</defs>
</svg>

<svg class="partner-size" width="100" height="30" viewBox="0 0 100 30" fill="none" xmlns="http://www.w3.org/2000/svg"><g clip-path="url(#clip0_205_58)"><path class="fill" d="m76.281 26.093 2.688-.84V3.11l-2.688.84v22.143Zm-31-13.435c1.688 0 3.25.746 4.25 1.99l1.094-2.519c-1.438-1.368-3.344-2.021-5.344-2.021-4.625 0-7.812 3.638-7.781 7.65.031 4.354 3.469 7.9 7.781 7.9 2.188 0 3.844-.653 5.094-1.555v-3.08c-1.313 1.307-3.219 2.085-4.875 2.085-2.5 0-5.313-2.022-5.313-5.35 0-3.078 2.438-5.1 5.094-5.1Zm17.875-2.55c-4.625 0-7.312 3.638-7.312 7.65 0 4.354 3.468 7.9 7.781 7.9 2.188 0 3.844-.653 5.094-1.555v-3.08c-1.313 1.307-3.219 2.085-4.875 2.085-2.219 0-4.657-1.369-5.157-4.261H70.47V17.82c0-4.292-2.844-7.713-7.313-7.713Zm29.032 0c-4.313 0-7.813 3.483-7.813 7.775s3.5 7.775 7.813 7.775c4.312 0 7.812-3.483 7.812-7.775s-3.5-7.775-7.812-7.775Zm-29 2.55c2.093 0 4.312 1.306 4.5 3.825h-9c.187-2.519 2.406-3.825 4.5-3.825Zm29 10.45c-2.907 0-5.25-2.333-5.25-5.225 0-2.893 2.343-5.225 5.25-5.225 2.906 0 5.25 2.332 5.25 5.225 0 2.892-2.344 5.225-5.25 5.225Z" fill="#1A1A1A"/><path d="M17.969 20.215c4.746 0 8.593-3.829 8.593-8.552 0-4.724-3.847-8.553-8.593-8.553s-8.594 3.83-8.594 8.553c0 4.723 3.848 8.552 8.594 8.552Zm0 3.11c-6.472 0-11.719-5.221-11.719-11.662C6.25 5.222 11.497 0 17.969 0c6.472 0 11.718 5.222 11.718 11.663 0 6.44-5.246 11.662-11.718 11.662Z" fill="#35D07F"/><path d="M11.719 26.435c4.746 0 8.594-3.829 8.594-8.552 0-4.724-3.848-8.553-8.594-8.553-4.746 0-8.594 3.83-8.594 8.553 0 4.723 3.848 8.552 8.594 8.552Zm0 3.11C5.247 29.545 0 24.324 0 17.883 0 11.442 5.247 6.22 11.719 6.22c6.472 0 11.719 5.222 11.719 11.663 0 6.44-5.247 11.662-11.72 11.662Z" fill="#FBCC5C"/><path d="M18.353 23.32a8.513 8.513 0 0 0 1.704-3.36 8.584 8.584 0 0 0 3.374-1.695 11.563 11.563 0 0 1-.91 4.148 11.715 11.715 0 0 1-4.168.906ZM9.631 9.583a8.584 8.584 0 0 0-3.374 1.696c.045-1.427.353-2.833.91-4.148a11.714 11.714 0 0 1 4.167-.906 8.511 8.511 0 0 0-1.703 3.358Z" fill="#ECFF8F"/></g><defs><clipPath id="clip0_205_58"><path fill="#fff" d="M0 0h100v29.546H0z"/></clipPath></defs></svg>
